src/main/resources/icons/JbpmIcons/icons/bpmn/tasks/ManualTask.svg

<svg xmlns="http://www.w3.org/2000/svg" width="16" height="16" viewBox="0 0 16 16">
  <g fill="none" fill-rule="evenodd">
    <path fill="#40B6E0" fill-opacity=".7" d="M7,14 L2,14 L2,2 L14,2 L14,6 L9,6 L9,10 L7,10 L7,14 Z"/>
    <path fill="#9AA7B0" d="M15.625,9.0625 L15.625,14.5 C15.625,15.325 14.95,16 14.125,16 L11.3875,16 C10.9825,16 10.6,15.83875 10.31875,15.55375 L7.375,12.56125 C7.375,12.56125 7.8475,12.1 7.8625,12.0925 C7.945,12.02125 8.04625,11.98375 8.15875,11.98375 C8.24125,11.98375 8.31625,12.00625 8.38375,12.04375 C8.39875,12.0475 10,12.96625 10,12.96625 L10,8.5 C10,8.18875 10.25125,7.9375 10.5625,7.9375 C10.87375,7.9375 11.125,8.18875 11.125,8.5 L11.125,11.125 L11.5,11.125 L11.5,7.5625 C11.5,7.25125 11.75125,7 12.0625,7 C12.37375,7 12.625,7.25125 12.625,7.5625 L12.625,11.125 L13,11.125 L13,7.9375 C13,7.62625 13.25125,7.375 13.5625,7.375 C13.87375,7.375 14.125,7.62625 14.125,7.9375 L14.125,11.125 L14.5,11.125 L14.5,9.0625 C14.5,8.75125 14.75125,8.5 15.0625,8.5 C15.37375,8.5 15.625,8.75125 15.625,9.0625 Z"/>
  </g>
</svg>

<svg xmlns="http://www.w3.org/2000/svg" width="16" height="16" viewBox="0 0 16 16"><rect id="frame" width="16" height="16" fill="none"/><g fill="none" fill-rule="evenodd"><path fill="#40B6E0" fill-opacity=".7" d="M7 14H2V2h12v4H9v4H7v4z"/><path fill="#9AA7B0" d="M15.625 9.063V14.5c0 .825-.675 1.5-1.5 1.5h-2.738c-.405 0-.787-.161-1.068-.446L7.375 12.56s.473-.461.487-.469a.458.458 0 0 1 .521-.049c.016.005 1.617.923 1.617.923V8.5a.562.562 0 1 1 1.125 0v2.625h.375V7.562a.562.562 0 1 1 1.125 0v3.563H13V7.937a.562.562 0 1 1 1.125 0v3.188h.375V9.062a.562.562 0 1 1 1.125 0z"/></g></svg>
